X:224
T:Je muir d'amourete
C:Adam de la Halle
R:Rondeau
O:XIIIe
M:3/4
L:1/8
Q:1/4=120
K:C 
%%continueall 1
%%maxshrink 0.6
V:1
%%MIDI program 46
A2G4 | E2F4 | E2F2D2 | E2E2D2 | 
CDE2C2 | D3/2z4z/2 | E2F4 | E2F4 | 
E2F2D2 | E2E2D2 | C2D4 | F6 | 
A2G4 | E2F4 | E2F2D2 | E2E2D2 | 
A2G4 | E2F4 | E2F2D2 | E2E2D2 | 
A2G4 | E2F4 | E2F2D2 | E2E2D2 | 
CDE2C2 | D3/2z4z/2 | E2F4 | E2F4 | 
E2F2D2 | E2E2D2 | C2D4 | F6 | 
A2G4 | E2F4 | E2F2D2 | E2E2D2 | 
CDE2C2 | D3/2z4z/2 | E2F4 | E2F4 | 
E2F2D2 | E2E2D2 | C2D4 | F6 |]
V:2
%%MIDI program 41
A2c4 | c2c2B2 | AGF2G2 | A2A2G2 | 
F2E2F2 | G3/2z4z/2 | A2c4 | c2c2B2 | 
AGF2G2 | A2A2G2 | F2E4 | F6 | 
A2c4 | c2c2B2 | AGF2G2 | A2A2G2 | 
A2c4 | c2c2B2 | AGF2G2 | A2A2G2 | 
A2c4 | c2c2B2 | AGF2G2 | A2A2G2 | 
F2E2F2 | G3/2z4z/2 | A2c4 | c2c2B2 | 
AGF2G2 | A2A2G2 | F2E4 | D6 | 
A2c4 | c2c2B2 | AGF2G2 | A2A2G2 | 
F2E2F2 | G3/2z4z/2 | A2c4 | c2c2B2 | 
AGF2G2 | A2A2G2 | F2E4 | D6 |]
V:3
%%MIDI program 79
e2c4 | A2F4 | ABc2B2 | A2c2B2 | 
A2B2A2 | G3/2z4z/2 | A2F4 | A2F2G2 | 
ABc2B2 | A2c2B2 | A2G4 | F6 | 
e2c4 | A2F4 | ABc2B2 | A2c2B2 | 
e2c4 | A2F4 | ABc2B2 | A2c2B2 | 
e2c4 | A2F4 | ABc2B2 | A2c2B2 | 
A2B2A2 | G3/2z4z/2 | A2F4 | A2F2G2 | 
ABc2B2 | A2c2B2 | A2G4 | F6 | 
e2c4 | A2F4 | ABc2B2 | A2c2B2 | 
A2B2A2 | G3/2z4z/2 | A2F4 | A2F2G2 | 
ABc2B2 | A2c2B2 | A2G4 | F6 |]





%%header "$P0	 $IR 	$P1"
%%footer $D - Éditions Galouvielle - 2009 - À usage librement privé dans le cadre familial

